X:1
T:Send a Wave of Salvation Today
T:Send a Wave of Salvation Today
T:John Otho Beall
T:Johnson Oatman, Jr., 1922
T:Public Domain Courtesy of the Cyber Hymnal™
T:Public Domain Courtesy of the Cyber Hymnal™
C:John Otho Beall
Z:Public Domain
Z:Courtesy of the Cyber Hymnal™
%%score ( 1 2 ) ( 3 4 )
L:1/8
M:6/4
K:F
V:1 treble 
V:2 treble 
V:3 bass 
V:4 bass 
V:1
 C>[CF] | [FA]2 [FA]2 [FA]2 [F^G]2 [FA]2 [FB]2 | [FA]6 [CF]4 [CF]>[FA] | [Fc]2 [Fc]2 [Fc]2 | %4
w: 1.~We are|wait- ing and watch- ing, dear|Sav- ior, For an|old time re-|
w: 2.~We are|pray- ing for sin- ners, dear|Sav- ior, And for|sheep who have|
w: 3.~Ma- ny|sad hearts are weep- ing in|sor- row, For the|years have been|
w: 4.~In that|home of the soul we have|loved ones, We’ve been|lone- ly since|
 [F=B]2 [Fc]2 [Fd]2 | [Fc]6- [Fc]4 [FA]>[FA] | [Fc]2 [Fc]2 [Fc]2 [Fd]2 [Fc]2 F2 | A6 [DF]4 | %8
w: vi- val we|pray; * Thou who|hast all the floods in Thy|keep- ing,|
w: wan- dered a-|stray; * No- thing,|Lord, but Thy pow’r can re-|claim them,|
w: squan- dered a-|way; * But their|tears with- out Christ will not|save them,|
w: they went a-|way; * O that|all may pre- pare to re-|join them;|
 [DF]>[B,D] | [A,C]2 [A,C]2 [A,C]2 [A,C] [CF]3 [CG]2 | [CF]6- [CF]4 ||"^Refrain" F>[FA] | %12
w: Send a|wave of sal- va- tion to-|day. *||
w: Send a|wave of sal- va- tion to-|day. *|Send a|
w: Send a|wave of sal- va- tion to-|day. *||
w: Send a|wave of sal- va- tion to-|day. *||
 [Fc]2 [Fc]2 [Fc]2 [Fd] [Fc]3 [Fc]2 | [FA]2 [Fc]4- [Fc]4 [CA]>[CA] | %14
w: ||
w: wave of sal- va- tion, dear|Sav- ior, * O- ver|
w: ||
w: ||
 [CA] [CA]3 [CA]2 [DF] [DF]3 [EG]2 | [FA]6- [FA]4 F>[FA] | [Fc]2 [Fc]2 [Fc]2 | [Fd]2 [Fc]2 F2 | %18
w: ||||
w: ci- ty and count- ry, we|pray; * To re-|deem and re-|store poor lost|
w: ||||
w: ||||
 A6 [DF]4 [DF]>[B,D] | [A,C]2 [A,C]2 [A,C]2 [A,C] [CF]3 [CG]2 | [CF]6- [CF]4 |] %21
w: |||
w: sin- ners; Send a|wave of sal- va- tion to-|day. *|
w: |||
w: |||
V:2
 C3/2 x/ | x12 | x12 | x6 | x6 | x12 | x10 F2 | (C4 ^C2) x4 | x2 | x12 | x10 || F3/2 x/ | x12 | %13
 x12 | x12 | x10 F3/2 x/ | x6 | x4 F2 | (C4 ^C2) x6 | x12 | x10 |] %21
V:3
 [F,A,]>[F,A,] | [F,C]2 [F,C]2 [F,C]2 [F,=B,]2 [F,C]2 [F,D]2 | [F,C]6 [F,A,]4 [F,A,]>[F,C] | %3
 [F,A,]2 [F,A,]2 [F,A,]2 | [F,^G,]2 [F,A,]2 [F,B,]2 | [F,A,]6- [F,A,]4 [F,C]>[F,C] | %6
 [F,A,]2 [F,A,]2 [F,A,]2 [F,B,]2 [F,A,]2 [F,A,]2 | F,4 [E,G,]2 [D,A,]4 | [B,,B,]>[B,,F,] | %9
 [C,F,]2 [C,F,]2 [C,F,]2 [C,F,] [C,A,]3 [C,B,]2 | [F,A,]6- [F,A,]4 || [F,A,]>[F,C] | %12
 [F,A,]2 [F,A,]2 [F,A,]2 [F,B,] [F,A,]3 [F,A,]2 | [F,C]2 [F,A,]4- [F,A,]4 F,>F, | %14
 F, F,3 F,2 [D,A,] [D,A,]3 [C,C]2 | [F,C]6- [F,C]4 [F,A,]>[F,C] | [F,A,]2 [F,A,]2 [F,A,]2 | %17
 [F,B,]2 [F,A,]2 [F,A,]2 | F,4 [E,G,]2 [D,A,]4 [B,,B,]>[B,,F,] | %19
 [C,F,]2 [C,F,]2 [C,F,]2 [C,F,] [C,A,]3 [C,B,]2 | [F,A,]6- [F,A,]4 |] %21
V:4
 x2 | x12 | x12 | x6 | x6 | x12 | x12 | F,4 x6 | x2 | x12 | x10 || x2 | x12 | x10 F,>F, | %14
 F, F,3 F,2 x6 | x12 | x6 | x6 | F,4 x8 | x12 | x10 |] %21

